X:651
T:Reel 651
M:4/4
K:Amin
L:1/8
A,B,|C>A, (3A,A,A, E>A, (3A,G,A, |B,>G, (3G,G,G, B,DD2||C>A, (3A,A,A, E>A, (3A,G,A, |DB,GB, A,2A,:||2A,^G,A,B, CB,CD|EGDB, B,A,A,2|B,>G, (3G,G,G, B,>D (3DG,G, |B,>G, (3G,G,G, D>G, (3G,A,G, |B,>G, (3G,G,G, B,>D (3CDC |B,>G, (3G,G,G, D,>G, (3G,F,E, :|B,>G, (3G,F,G, D,>G, (3G,A,G, |B,>G, (3G,G,G, A,>B, (3G,G,G, |B,>D (3DCD E2|:GGG|A2GF GAG2F>G| (3EGG A>F DEFD|D>G, (3G,G,G, B,>G, (3G,A,G, |B,G,GD GA,B,C| (3GAG AG AFGE| (3GAG AF GFGA|BGAF GA (3
